X:41
T:Tricot s1.2   kejaj
O:Brittany
Q:1/4=150
M:3/2
L:1/8
G:Lark19
A:Brittany
K:Em
B2 BB A2B2 G2E2|B2 AB d2c2 B4|B2 BB A2B2 G2E2|B2 AB d2c2 B4||
M:2/2
|:B2 BB A2A2|GAGE F4| BBBB A2 AF|G2A2 E4:|

